mono-glyphs/copilot-w.svg

<svg xmlns="http://www.w3.org/2000/svg" width="1024" height="1024" fill="none" viewBox="0 0 1024 1024">
  <path fill="#fff" fill-rule="evenodd" d="M503.269 729.678c-18.487 7.188-38.174 10.781-59.057 10.781H288.611a174.587 174.587 0 0 1 12.58 29.778c3.251 10.268 6.933 22.761 11.041 37.477.686 1.029 1.369 3.253 2.055 6.675 4.45 16.771 8.816 30.462 13.093 41.07 4.28 10.611 9.332 19.51 15.151 26.698 6.163 7.528 13.952 13.433 23.366 17.712 9.414 4.278 22.167 6.417 38.259 6.417 16.776 0 30.127-6.845 40.056-20.536 8.901-11.979 17.802-30.118 26.706-54.42 5.819-15.742 14.037-41.242 24.65-76.495l1.539-5.647 6.162-19.51Zm253.689-380.424c-21.909.685-41.51 7.702-58.799 21.05-17.288 13.348-29.015 30.631-35.178 51.853-34.92 119.106-69.156 234.449-102.707 346.026l-2.055 6.16c-8.558 29.435-17.119 55.961-25.676 79.577-7.192 19.851-14.894 37.307-23.111 52.366h209.525c34.237 0 66.418-22.417 96.545-67.255 26.362-39.018 51.185-96.005 74.466-170.959 15.406-48.943 27.473-91.727 36.204-128.348 8.73-36.624 13.096-69.309 13.096-98.059 0-30.804-6.336-53.907-19.004-69.307-13.351-15.402-36.632-23.104-69.84-23.104h-93.466Zm-177.17 0c-22.255 0-42.367 6.674-60.341 20.022-17.975 13.351-30.215 30.804-36.72 52.366l-16.433 55.448-42.111 143.235c-6.503 20.536-15.746 38.678-27.728 54.42h47.757c22.255 0 42.367-6.673 60.341-20.021 17.975-13.351 30.215-30.804 36.717-52.366l16.436-55.448 42.108-143.235c5.48-19.51 14.723-37.649 27.731-54.421h-47.757Zm40.056-231.54c-8.901 0-16.776 1.797-23.624 5.391-6.846 3.594-12.325 8.471-16.432 14.632-9.244 12.664-18.145 30.974-26.706 54.933-5.819 15.744-14.037 41.242-24.65 76.495l-2.052 5.648-5.649 19.509c18.487-7.188 38.174-10.782 59.057-10.782h155.601c-8.214-15.744-16.262-38.162-24.134-67.254l-1.542-7.188c-4.45-16.428-8.816-29.948-13.096-40.558-4.277-10.61-9.329-19.509-15.148-26.696-6.163-7.53-13.952-13.434-23.366-17.712-9.417-4.279-22.17-6.418-38.259-6.418Zm-315.314 0c-34.58 0-66.761 22.418-96.548 67.255-26.019 39.36-50.669 96.346-73.949 170.959-15.748 50.997-27.902 94.039-36.461 129.118-8.559 35.083-12.839 66.998-12.839 95.748 0 32.515 6.334 56.131 19.001 70.848 13.352 15.402 36.462 23.103 69.329 23.103h93.463c21.912-.34 41.598-7.274 59.06-20.791 17.458-13.521 29.27-30.889 35.433-52.111 34.92-119.106 69.156-234.449 102.707-346.026l2.055-6.161c10.27-34.91 18.831-61.436 25.676-79.575 7.192-19.852 14.894-37.307 23.111-52.367H304.53Zm0-65.714h315.314c48.957 0 86.445 16.087 112.467 48.259 9.927 12.321 17.886 25.841 23.879 40.558 5.989 14.718 11.554 31.659 16.69 50.826l1.026 4.107c5.477 19.509 9.757 33.627 12.838 42.355 3.082 8.727 7.019 16.514 11.812 23.359 4.451 6.846 9.93 12.15 16.433 15.916 7.191 3.764 16.262 5.818 27.218 6.16h8.217c53.065 0 92.781 15.231 119.14 45.692C993.188 356.271 1005 394.09 1005 442.694c0 33.541-4.54 69.221-13.609 107.041-9.071 37.819-21.997 83.767-38.772 137.845-24.993 81.116-52.381 143.75-82.168 187.902C827.314 939.827 776.818 972 718.957 972H404.156c-49.3 0-86.788-16.088-112.464-48.261-9.93-12.319-17.804-25.755-23.624-40.298-5.819-14.547-11.469-31.575-16.948-51.083l-1.026-4.108c-4.794-17.456-8.901-31.059-12.325-40.814-3.425-9.756-7.532-18.054-12.325-24.9-5.137-7.531-10.786-12.835-16.946-15.915-6.848-3.765-15.922-5.82-27.218-6.162h-8.217c-52.724 0-92.438-15.4-119.142-46.204C30.64 667.559 19 629.91 19 581.306c0-32.512 4.28-66.909 12.838-103.19 8.56-36.281 20.542-80.26 35.948-131.942l3.082-9.754c24.65-79.747 52.21-142.552 82.681-188.415C197.026 84.002 247.356 52 304.53 52Z" clip-rule="evenodd"/>
</svg>

<svg width="1024" height="1024" viewBox="0 0 1024 1024" fill="none" xmlns="http://www.w3.org/2000/svg">
<g clip-path="url(#clip0_22_23)">
<mask id="mask0_22_23" style="mask-type:luminance" maskUnits="userSpaceOnUse" x="19" y="52" width="986" height="920">
<path d="M1005 52H19V972H1005V52Z" fill="white"/>
</mask>
<g mask="url(#mask0_22_23)">
<path fill-rule="evenodd" clip-rule="evenodd" d="M503.269 729.678C484.782 736.866 465.095 740.459 444.212 740.459H288.611C293.744 750.044 297.94 759.969 301.191 770.237C304.442 780.505 308.124 792.998 312.232 807.714C312.918 808.743 313.601 810.967 314.287 814.389C318.737 831.16 323.103 844.851 327.38 855.459C331.66 866.07 336.712 874.969 342.531 882.157C348.694 889.685 356.483 895.59 365.897 899.869C375.311 904.147 388.064 906.286 404.156 906.286C420.932 906.286 434.283 899.441 444.212 885.75C453.113 873.771 462.014 855.632 470.918 831.33C476.737 815.588 484.955 790.088 495.568 754.835L497.107 749.188L503.269 729.678ZM756.958 349.254C735.049 349.939 715.448 356.956 698.159 370.304C680.871 383.652 669.144 400.935 662.981 422.157C628.061 541.263 593.825 656.606 560.274 768.183L558.219 774.343C549.661 803.778 541.1 830.304 532.543 853.92C525.351 873.771 517.649 891.227 509.432 906.286H718.957C753.194 906.286 785.375 883.869 815.502 839.031C841.864 800.013 866.687 743.026 889.968 668.072C905.374 619.129 917.441 576.345 926.172 539.724C934.902 503.1 939.268 470.415 939.268 441.665C939.268 410.861 932.932 387.758 920.264 372.358C906.913 356.956 883.632 349.254 850.424 349.254H847.343H845.801H756.958ZM579.788 349.254C557.533 349.254 537.421 355.928 519.447 369.276C501.472 382.627 489.232 400.08 482.727 421.642L466.294 477.09L424.183 620.325C417.68 640.861 408.437 659.003 396.455 674.745H444.212C466.467 674.745 486.579 668.072 504.553 654.724C522.528 641.373 534.768 623.92 541.27 602.358L557.706 546.91L599.814 403.675C605.294 384.165 614.537 366.026 627.545 349.254H579.788ZM619.844 117.714C610.943 117.714 603.068 119.511 596.22 123.105C589.374 126.699 583.895 131.576 579.788 137.737C570.544 150.401 561.643 168.711 553.082 192.67C547.263 208.414 539.045 233.912 528.432 269.165L526.38 274.813L520.731 294.322C539.218 287.134 558.905 283.54 579.788 283.54H735.389C727.175 267.796 719.127 245.378 711.255 216.286L709.713 209.098C705.263 192.67 700.897 179.15 696.617 168.54C692.34 157.93 687.288 149.031 681.469 141.844C675.306 134.314 667.517 128.41 658.103 124.132C648.686 119.853 635.933 117.714 619.844 117.714ZM304.53 117.714C269.95 117.714 237.769 140.132 207.982 184.969C181.963 224.329 157.313 281.315 134.033 355.928C118.285 406.925 106.131 449.967 97.5719 485.046C89.013 520.129 84.7332 552.044 84.7332 580.794C84.7332 613.309 91.0666 636.925 103.734 651.642C117.086 667.044 140.196 674.745 173.063 674.745H176.657H178.199H266.526C288.438 674.405 308.124 667.471 325.586 653.954C343.044 640.433 354.856 623.065 361.019 601.843C395.939 482.737 430.175 367.394 463.726 255.817L465.781 249.656C476.051 214.746 484.612 188.22 491.457 170.081C498.649 150.229 506.351 132.774 514.568 117.714H304.53ZM304.53 52H619.844C668.801 52 706.289 68.0865 732.311 100.259C742.238 112.58 750.197 126.1 756.19 140.817C762.179 155.535 767.744 172.476 772.88 191.643L773.906 195.75C779.383 215.259 783.663 229.377 786.744 238.105C789.826 246.832 793.763 254.619 798.556 261.464C803.007 268.31 808.486 273.614 814.989 277.38C822.18 281.144 831.251 283.198 842.207 283.54H850.424C903.489 283.54 943.205 298.771 969.564 329.232C993.188 356.271 1005 394.09 1005 442.694C1005 476.235 1000.46 511.915 991.391 549.735C982.32 587.554 969.394 633.502 952.619 687.58C927.626 768.696 900.238 831.33 870.451 875.482C827.314 939.827 776.818 972 718.957 972H404.156C354.856 972 317.368 955.912 291.692 923.739C281.762 911.42 273.888 897.984 268.068 883.441C262.249 868.894 256.599 851.866 251.12 832.358L250.094 828.25C245.3 810.794 241.193 797.191 237.769 787.436C234.344 777.68 230.237 769.382 225.444 762.536C220.307 755.005 214.658 749.701 208.498 746.621C201.65 742.856 192.576 740.801 181.28 740.459H173.063C120.339 740.459 80.625 725.059 53.9207 694.255C30.6398 667.559 19 629.91 19 581.306C19 548.794 23.2797 514.397 31.8383 478.116C40.3978 441.835 52.3804 397.856 67.7864 346.174L70.8676 336.42C95.5176 256.673 123.078 193.868 153.549 148.005C197.026 84.0016 247.356 52 304.53 52Z" fill="white"/>
</g>
</g>
<defs>
<clipPath id="clip0_22_23">
<rect width="986" height="920" fill="white" transform="translate(19 52)"/>
</clipPath>
</defs>
</svg>
